frontend/src/assets/figma/downloaded/request-form-bg.svg

<svg width="440" height="847" viewBox="0 0 440 847" fill="none" xmlns="http://www.w3.org/2000/svg" xmlns:xlink="http://www.w3.org/1999/xlink">
<rect width="440" height="847" fill="url(#pattern0_100_1992)" fill-opacity="0.1"/>
<rect width="440" height="847" fill="url(#paint0_radial_100_1992)" fill-opacity="0.4"/>
<defs>
<radialGradient id="paint0_radial_100_1992" cx="0" cy="0" r="1" gradientUnits="userSpaceOnUse" gradientTransform="translate(440 -89.5821) rotate(113.449) scale(1184.85 295.801)">
<stop stop-color="#FF291F"/>
<stop offset="1"/>
</radialGradient>
<pattern id="pattern0_100_1992" patternUnits="userSpaceOnUse" patternTransform="matrix(204.644 0 0 464.166 0.00078125 0)" preserveAspectRatio="none" viewBox="0.00195312 0 511.61 1160.42" width="1" height="1">
<use xlink:href="#pattern0_100_1992_inner" transform="translate(-511.61 0)"/>
<g id="pattern0_100_1992_inner">
<path d="M113.329 248.751C110.361 245.282 106.402 242.926 102.114 241.933C102.454 240.513 102.643 239.053 102.68 237.578C102.722 235.919 102.554 234.591 102.446 233.884C102.267 232.718 101.929 231.193 101.263 229.484C93.8742 232.96 86.4857 236.436 79.0943 239.913C83.3388 248.959 87.5866 258.003 91.8305 267.048L117.11 255.187C116.907 254.643 116.68 254.101 116.429 253.565C115.594 251.784 114.544 250.175 113.328 248.752L113.33 248.751L113.329 248.751ZM95.2906 257.215L89.0726 243.963L94.4795 241.426C94.456 241.495 94.4307 241.564 94.4038 241.631C94.0533 242.585 93.5929 243.497 93.0327 244.344L96.5583 251.858C97.4509 250.977 98.2537 250.019 98.9604 249.002C101.599 249.283 104.126 250.361 106.184 252.104L95.2906 257.215Z" fill="#EBEBEB"/>
<path d="M487.881 254.089C482.005 247.221 474.166 242.556 465.677 240.589C466.35 237.778 466.726 234.888 466.799 231.969C466.882 228.683 466.549 226.055 466.336 224.656C465.981 222.346 465.312 219.327 463.994 215.944C449.365 222.825 434.738 229.708 420.104 236.591C428.507 254.5 436.917 272.405 445.319 290.312L495.367 266.83C494.964 265.754 494.516 264.68 494.018 263.619C492.364 260.094 490.287 256.908 487.879 254.09L487.884 254.088L487.881 254.089ZM452.169 270.845L439.859 244.609L450.563 239.586C450.517 239.723 450.467 239.859 450.413 239.993C449.72 241.88 448.808 243.688 447.699 245.363L454.679 260.239C456.446 258.496 458.035 256.598 459.435 254.584C464.658 255.142 469.66 257.275 473.735 260.727L452.169 270.845Z" fill="#EBEBEB"/>
<path d="M434.25 530.687C426.217 521.299 415.502 514.921 403.897 512.233C404.817 508.39 405.331 504.44 405.431 500.449C405.544 495.958 405.089 492.365 404.797 490.452C404.312 487.295 403.398 483.167 401.596 478.544C381.599 487.949 361.604 497.358 341.6 506.767C353.087 531.248 364.583 555.725 376.068 580.203L444.482 548.103C443.933 546.633 443.32 545.165 442.639 543.714C440.378 538.895 437.539 534.54 434.247 530.688L434.253 530.685L434.25 530.687ZM385.432 553.592L368.604 517.728L383.237 510.862C383.173 511.049 383.105 511.235 383.032 511.418C382.084 513.998 380.838 516.468 379.322 518.759L388.863 539.094C391.279 536.711 393.451 534.116 395.364 531.364C402.505 532.126 409.342 535.042 414.912 539.76L385.432 553.592Z" fill="#EBEBEB"/>
<path d="M419.084 375.12C419.07 375.708 419.038 376.331 418.98 376.985C418.915 377.7 418.828 378.373 418.726 379H411.226C411.303 378.634 411.372 378.247 411.43 377.839C411.464 377.602 411.492 377.371 411.514 377.147C411.514 377.147 411.636 376.068 411.636 375.12C411.636 367.167 407.202 359.925 400.497 356.955V379H393.084V349H400.04C409.886 351.098 415.43 360.415 417.239 365.099C417.449 365.643 418.07 367.81 418.581 370.479C418.776 371.501 419.013 372.732 419.07 374.314C419.081 374.652 419.084 374.931 419.083 375.122L419.084 375.12Z" fill="#EBEBEB"/>
<path d="M259.394 69.9802C259.038 71.2231 258.624 72.5324 258.138 73.8928C257.605 75.3778 257.046 76.7627 256.483 78.0417L240.571 73.8957C240.938 73.1591 241.299 72.3746 241.649 71.5373C241.851 71.0517 242.04 70.5741 242.21 70.1094C242.21 70.1094 243.068 67.8798 243.594 65.8633C248.006 48.9304 242.616 31.0614 230.038 21.0332L217.81 67.9652L202.083 63.8676L218.725 0L233.482 3.84504C253.205 13.7536 259.799 36.6531 261.039 47.6269C261.183 48.9009 261.297 53.8572 260.901 59.8213C260.749 62.1039 260.569 64.8563 259.811 68.2556C259.648 68.9814 259.499 69.5769 259.39 69.9822L259.394 69.9802Z" fill="#EBEBEB"/>
<path d="M65.5197 493.408C63.7887 494.59 61.9163 495.794 59.9011 496.987C57.6983 498.287 55.5658 499.435 53.5371 500.445L37.8776 478.661C39.099 478.123 40.3636 477.52 41.667 476.838C42.4226 476.442 43.1527 476.042 43.8471 475.64C43.8471 475.64 47.2273 473.748 49.9704 471.777C73.0049 455.218 84.7202 427.262 79.3214 401.607L15.478 447.5L0.00119388 425.97L86.8828 363.516L101.406 383.718C115.886 416.682 100.478 452.18 90.6898 467.189C89.5524 468.93 84.572 475.244 77.9101 482.284C75.3605 484.978 72.2889 488.23 67.8255 491.688C66.8711 492.425 66.0683 493.013 65.5133 493.407L65.5197 493.408Z" fill="#EBEBEB"/>
<path d="M228.365 385.002C227.923 385.847 227.65 386.604 227.476 387.181C227.35 387.601 227.162 388.236 227.068 389.092C226.97 389.976 227.022 390.633 227.072 391.26C227.202 392.888 227.569 394.069 227.721 394.521C227.813 394.8 227.9 395.026 227.961 395.177L222.797 396.531C222.677 395.708 222.581 394.946 222.47 394.099L216.038 395.786L221.797 417.738L214.696 419.6L207.844 393.48L207.847 393.479L207.086 390.581L222.989 386.41L228.365 385.002Z" fill="#EBEBEB"/>
<path d="M109.532 43.002C109.835 45.5863 110.382 47.7152 110.876 49.2859C111.237 50.4289 111.79 52.1512 112.892 54.2295C114.032 56.3769 115.159 57.7815 116.235 59.1228C119.032 62.6011 121.677 64.7073 122.713 65.4969C123.352 65.9854 123.893 66.3616 124.262 66.6103L114.692 77.581C113.154 75.9056 111.767 74.3295 110.214 72.5861L98.2931 86.2515L145.037 127.029L131.876 142.116L76.2547 93.5941L76.2593 93.5889L70.0885 88.2057L99.5641 54.4177L109.532 43.002Z" fill="#EBEBEB"/>
<path d="M511.61 114.286C510.339 115.068 509.363 115.866 508.665 116.503C508.158 116.967 507.395 117.67 506.58 118.745C505.738 119.857 505.28 120.783 504.842 121.666C503.707 123.961 503.25 125.846 503.09 126.576C502.99 127.026 502.925 127.398 502.885 127.65L494.866 125.32C495.366 124.116 495.851 123.014 496.384 121.785L486.395 118.882L476.468 153.048L465.441 149.844L477.254 109.19L477.258 109.191L478.568 104.681L503.264 111.857L511.61 114.286Z" fill="#EBEBEB"/>
<path d="M364.831 73.5462C367.664 77.9388 372.794 80.1707 377.877 79.523L372.683 69.5026L379.356 66.0448L389.334 85.2982L389.369 85.2511L392.553 91.3936L392.204 91.7597C391.941 92.0352 391.669 92.308 391.385 92.5771C391.048 92.9012 390.702 93.2083 390.351 93.5035C389.537 94.188 388.684 94.8035 387.804 95.3516C387.366 95.6242 386.923 95.8814 386.469 96.1205C386.35 96.1839 386.23 96.2461 386.11 96.3066C386.036 96.3449 385.946 96.3916 385.852 96.4349C384.155 97.2699 382.375 97.872 380.562 98.2467C380.461 98.2684 380.361 98.289 380.253 98.3074C379.962 98.3667 379.673 98.4144 379.395 98.4567L379.392 98.4579L379.389 98.4569C379.217 98.4814 379.045 98.5058 378.87 98.5293C377.941 98.6504 377.012 98.6886 376.321 98.6979C375.975 98.7023 375.684 98.6992 375.48 98.6946C375.378 98.6929 375.297 98.6902 375.241 98.688C375.212 98.6869 375.191 98.6863 375.176 98.6855C375.169 98.6851 375.163 98.6852 375.158 98.6847C375.157 98.6853 375.156 98.6848 375.154 98.6843L374.96 98.6755C372.963 98.5753 371.287 98.2058 370.225 97.9207L369.387 97.6965L369.791 96.9257C370.178 96.1885 370.567 95.4089 370.947 94.5877L371.074 94.3107C371.368 93.6678 371.638 93.0396 371.887 92.4286L372.117 91.866L372.711 91.9945C374.113 92.2993 375.69 92.4593 377.398 92.3263L377.564 92.3122C377.743 92.2967 377.923 92.2766 378.108 92.2541L378.113 92.2512L378.155 92.2468C378.348 92.223 378.543 92.1934 378.745 92.159C378.794 92.1511 378.834 92.1433 378.873 92.1373L378.989 92.1157L379.001 92.1126L379.012 92.1112L379.13 92.0903C379.209 92.0753 379.288 92.0598 379.367 92.042L379.487 92.0158L379.49 92.014L379.495 92.0145C379.797 91.9499 380.096 91.8767 380.391 91.7928L380.517 91.7562L380.518 91.7556L380.519 91.755C381.361 91.5111 382.187 91.1977 382.987 90.8105C383.183 90.7145 383.379 90.6145 383.574 90.5105L381.442 86.3974C372.486 88.7469 362.886 85.0716 358.084 77.043L364.83 73.5468L364.831 73.5462Z" fill="#EBEBEB"/>
<path d="M313.438 225.612C298.851 231.144 289.14 244.728 287.864 259.965L320.348 251.051L326.284 272.681L263.867 289.809L263.983 289.943L244.07 295.407L243.219 294.16C242.578 293.22 241.951 292.258 241.343 291.261C240.607 290.075 239.926 288.873 239.283 287.665C237.793 284.862 236.527 281.99 235.476 279.079C234.953 277.632 234.478 276.177 234.063 274.705C233.952 274.317 233.845 273.928 233.743 273.541C233.678 273.302 233.597 273.01 233.53 272.706C232.15 267.233 231.501 261.664 231.538 256.136C231.537 255.83 231.54 255.524 231.553 255.198C231.562 254.31 231.602 253.438 231.652 252.599L231.65 252.591L231.655 252.582C231.691 252.065 231.726 251.548 231.767 251.022C231.992 248.235 232.46 245.499 232.863 243.477C233.066 242.463 233.256 241.618 233.397 241.024C233.465 240.727 233.524 240.494 233.565 240.33C233.586 240.248 233.601 240.187 233.613 240.144C233.619 240.122 233.622 240.105 233.626 240.092C233.625 240.088 233.628 240.083 233.63 240.078L233.777 239.519C235.313 233.753 237.437 229.089 238.93 226.168L240.107 223.86L242.105 225.522C244.016 227.11 246.049 228.73 248.209 230.351L248.938 230.895C250.632 232.153 252.297 233.334 253.926 234.441L255.425 235.462L254.68 237.116C252.916 241.021 251.466 245.524 250.79 250.591L250.728 251.083C250.662 251.616 250.608 252.154 250.559 252.707L250.564 252.726L250.551 252.85C250.5 253.428 250.465 254.017 250.439 254.628C250.432 254.774 250.43 254.896 250.423 255.014L250.413 255.367L250.415 255.403L250.412 255.436L250.4 255.793C250.395 256.032 250.39 256.275 250.393 256.516L250.395 256.881L250.398 256.893L250.394 256.906C250.394 257.827 250.422 258.746 250.483 259.659L250.511 260.049L250.512 260.053L250.513 260.057C250.701 262.666 251.101 265.273 251.732 267.848C251.89 268.481 252.06 269.114 252.242 269.749L265.576 266.09C264.299 238.485 281.008 212.753 307.436 203.738L313.437 225.608L313.438 225.612Z" fill="#EBEBEB"/>
<path d="M168.117 526.584C174.87 530.814 183.396 530.575 189.992 526.392L176.339 515.921L183.311 506.83L209.544 526.949L209.563 526.861L217.932 533.28L217.687 534.011C217.502 534.562 217.304 535.114 217.086 535.669C216.83 536.335 216.551 536.983 216.258 537.617C215.577 539.089 214.798 540.49 213.938 541.817C213.511 542.476 213.065 543.118 212.594 543.741C212.47 543.906 212.345 544.07 212.219 544.231C212.141 544.331 212.047 544.454 211.945 544.575C210.143 546.826 208.076 548.809 205.815 550.5C205.691 550.594 205.565 550.688 205.429 550.783C205.065 551.053 204.697 551.306 204.34 551.545L204.338 551.548L204.332 551.549C204.111 551.694 203.89 551.839 203.663 551.984C202.459 552.753 201.201 553.407 200.253 553.867C199.778 554.097 199.376 554.28 199.09 554.406C198.949 554.47 198.836 554.518 198.756 554.552C198.716 554.569 198.687 554.582 198.666 554.59C198.655 554.594 198.647 554.598 198.64 554.601C198.639 554.602 198.636 554.603 198.634 554.603L198.361 554.716C195.539 555.87 192.986 556.445 191.336 556.739L190.034 556.972L190.094 555.646C190.15 554.378 190.182 553.051 190.175 551.671L190.172 551.206C190.161 550.129 190.128 549.087 190.076 548.082L190.029 547.157L190.932 546.95C193.066 546.463 195.346 545.663 197.617 544.375L197.836 544.248C198.074 544.111 198.309 543.966 198.55 543.816L198.556 543.808L198.61 543.775C198.861 543.617 199.112 543.45 199.368 543.272C199.43 543.229 199.48 543.193 199.531 543.159L199.677 543.054L199.691 543.042L199.705 543.033L199.855 542.928C199.954 542.856 200.054 542.783 200.151 542.708L200.299 542.594L200.303 542.59L200.31 542.587C200.684 542.303 201.05 542.008 201.402 541.702L201.553 541.569L201.554 541.568L201.555 541.566C202.559 540.685 203.497 539.718 204.35 538.666C204.559 538.406 204.764 538.141 204.966 537.872L199.362 533.574C188.521 542.612 172.891 543.752 161.066 535.777L168.116 526.586L168.117 526.584Z" fill="#EBEBEB"/>
</g>
<use xlink:href="#pattern0_100_1992_inner" transform="translate(-255.805 580.208)"/>
<use xlink:href="#pattern0_100_1992_inner" transform="translate(255.805 580.208)"/>
</pattern>
</defs>
</svg>

<svg xmlns="http://www.w3.org/2000/svg" xmlns:xlink="http://www.w3.org/1999/xlink" width="440" height="847" fill="none"><path fill="url(#a)" fill-opacity=".1" d="M0 0h440v847H0z"/><path fill="url(#b)" fill-opacity=".4" d="M0 0h440v847H0z"/><defs><radialGradient id="b" cx="0" cy="0" r="1" gradientTransform="rotate(113.449 249.395 99.587)scale(1184.85 295.801)" gradientUnits="userSpaceOnUse"><stop stop-color="#ff291f"/><stop offset="1"/></radialGradient><pattern id="a" width="1" height="1" patternTransform="scale(204.644 464.166)" patternUnits="userSpaceOnUse" preserveAspectRatio="none" viewBox="0.002 0 511.61 1160.42"><use xlink:href="#c" transform="translate(-511.61)"/><path id="c" fill="#ebebeb" d="M113.329 248.751a21.02 21.02 0 0 0-11.215-6.818 21 21 0 0 0 .332-8.049 21 21 0 0 0-1.183-4.4l-22.169 10.429q6.37 13.568 12.737 27.135l25.279-11.861a21.4 21.4 0 0 0-3.782-6.435zm-18.038 8.464-6.218-13.252 5.407-2.537a13.1 13.1 0 0 1-1.447 2.918l3.525 7.514a20 20 0 0 0 2.402-2.856 13.4 13.4 0 0 1 7.224 3.102zm392.59-3.126a41.63 41.63 0 0 0-22.204-13.5 41.7 41.7 0 0 0 .659-15.933 41.3 41.3 0 0 0-2.342-8.712c-14.629 6.881-29.256 13.764-43.89 20.647 8.403 17.909 16.813 35.814 25.215 53.721l50.048-23.482a43 43 0 0 0-1.349-3.211 42.3 42.3 0 0 0-6.139-9.529l.005-.002zm-35.712 16.756-12.31-26.236 10.704-5.023a7 7 0 0 1-.15.407 26 26 0 0 1-2.714 5.37l6.98 14.876a40 40 0 0 0 4.756-5.655 26.53 26.53 0 0 1 14.3 6.143zM434.25 530.687c-8.033-9.388-18.748-15.766-30.353-18.454a56.9 56.9 0 0 0 .9-21.781 56.4 56.4 0 0 0-3.201-11.908c-19.997 9.405-39.992 18.814-59.996 28.223 11.487 24.481 22.983 48.958 34.468 73.436l68.414-32.1a59 59 0 0 0-1.843-4.389 57.8 57.8 0 0 0-8.392-13.026l.006-.003zm-48.818 22.905-16.828-35.864 14.633-6.866q-.096.281-.205.556a35.5 35.5 0 0 1-3.71 7.341l9.541 20.335a55 55 0 0 0 6.501-7.73c7.141.762 13.978 3.678 19.548 8.396zm33.652-178.472a29 29 0 0 1-.104 1.865 29 29 0 0 1-.254 2.015h-7.5a18 18 0 0 0 .288-1.853s.122-1.079.122-2.027c0-7.953-4.434-15.195-11.139-18.165V379h-7.413v-30h6.956c9.846 2.098 15.39 11.415 17.199 16.099.21.544.831 2.711 1.342 5.38.195 1.022.432 2.253.489 3.835.011.338.014.617.013.808zM259.394 69.98a64 64 0 0 1-1.256 3.913 64 64 0 0 1-1.655 4.149l-15.912-4.146a39 39 0 0 0 1.639-3.787s.858-2.23 1.384-4.246c4.412-16.933-.978-34.802-13.556-44.83L217.81 67.965l-15.727-4.097L218.725 0l14.757 3.845c19.723 9.909 26.317 32.808 27.557 43.782.144 1.274.258 6.23-.138 12.194-.152 2.283-.332 5.035-1.09 8.435a44 44 0 0 1-.421 1.726zM65.52 493.408a103 103 0 0 1-5.619 3.579 102 102 0 0 1-6.364 3.458l-15.66-21.784a63 63 0 0 0 5.97-3.021s3.38-1.892 6.123-3.863c23.035-16.559 34.75-44.515 29.351-70.17L15.478 447.5.001 425.97l86.882-62.454 14.523 20.202c14.48 32.964-.928 68.462-10.716 83.471-1.138 1.741-6.118 8.055-12.78 15.095-2.55 2.694-5.621 5.946-10.084 9.404a74 74 0 0 1-2.313 1.719zm162.845-108.406a12.4 12.4 0 0 0-.889 2.179c-.126.42-.314 1.055-.408 1.911-.098.884-.046 1.541.004 2.168.13 1.628.497 2.809.649 3.261.092.279.179.505.24.656l-5.164 1.354c-.12-.823-.216-1.585-.327-2.432l-6.432 1.687 5.759 21.952-7.101 1.862-6.852-26.12.003-.001-.761-2.898 15.903-4.171zm-118.833-342c.303 2.584.85 4.713 1.344 6.284.361 1.143.914 2.865 2.016 4.944 1.14 2.147 2.267 3.552 3.343 4.893 2.797 3.478 5.442 5.584 6.478 6.374.639.488 1.18.865 1.549 1.113l-9.57 10.971c-1.538-1.675-2.925-3.252-4.478-4.995l-11.92 13.665 46.743 40.778-13.161 15.087-55.621-48.522.004-.005-6.17-5.383 29.475-33.788zm402.078 71.284a19.6 19.6 0 0 0-2.945 2.217c-.507.464-1.27 1.167-2.085 2.242-.842 1.112-1.3 2.038-1.738 2.921-1.135 2.295-1.592 4.18-1.752 4.91-.1.45-.165.822-.205 1.074l-8.019-2.33c.5-1.204.985-2.306 1.518-3.535l-9.989-2.903-9.927 34.166-11.027-3.204 11.813-40.654.004.001 1.31-4.51 24.696 7.176zm-146.779-40.74c2.833 4.393 7.963 6.625 13.046 5.977l-5.194-10.02 6.673-3.458 9.978 19.253.035-.047 3.184 6.143-.349.366a23 23 0 0 1-1.853 1.743 22.2 22.2 0 0 1-4.241 2.804c-.074.038-.164.085-.258.128a22.1 22.1 0 0 1-6.457 2.022h-.006q-.257.037-.519.072c-.929.121-1.858.16-2.549.169a24 24 0 0 1-1.08-.01l-.065-.002-.018-.001h-.004l-.194-.01c-1.997-.1-3.673-.47-4.735-.754l-.838-.225.404-.77c.387-.737.776-1.517 1.156-2.338l.127-.277q.44-.965.813-1.882l.23-.563.594.129c1.402.304 2.979.464 4.687.331l.166-.014q.267-.023.544-.058l.005-.003.042-.004q.288-.037.59-.088l.128-.022.116-.021.012-.003.011-.002.118-.02q.119-.023.237-.049l.12-.026.003-.002h.005q.453-.096.896-.221l.126-.037h.001l.001-.001a15.7 15.7 0 0 0 3.055-1.245l-2.132-4.113c-8.956 2.35-18.556-1.325-23.358-9.354l6.746-3.496zm-51.393 152.066c-14.587 5.532-24.298 19.116-25.574 34.353l32.484-8.914 5.936 21.63-62.417 17.128.116.134-19.913 5.464-.851-1.247a68 68 0 0 1-1.876-2.899 66 66 0 0 1-5.867-12.182 64 64 0 0 1-1.733-5.538c-.065-.239-.146-.531-.213-.835a66 66 0 0 1-1.992-16.57c-.001-.306.002-.612.015-.938.009-.888.049-1.76.099-2.599l-.002-.008.005-.009c.036-.517.071-1.034.112-1.56.225-2.787.693-5.523 1.096-7.545.203-1.014.393-1.859.534-2.453.068-.297.127-.53.168-.694l.048-.186.013-.052q0-.006.004-.014l.147-.559c1.536-5.766 3.66-10.43 5.153-13.351l1.177-2.308 1.998 1.662a157 157 0 0 0 6.104 4.829l.729.544a146 146 0 0 0 4.988 3.546l1.499 1.021-.745 1.654c-1.764 3.905-3.214 8.408-3.89 13.475l-.062.492c-.066.533-.12 1.071-.169 1.624l.005.019-.013.124a39 39 0 0 0-.112 1.778c-.007.146-.009.268-.016.386l-.01.353.002.036-.003.033-.012.357q-.01.36-.007.723l.002.365.003.012-.004.013q-.001 1.382.089 2.753l.028.39.001.004.001.004a47 47 0 0 0 1.219 7.791q.237.949.51 1.901l13.334-3.659c-1.277-27.605 15.432-53.337 41.86-62.352l6.001 21.87zM168.117 526.584c6.753 4.23 15.279 3.991 21.875-.192l-13.653-10.471 6.972-9.091 26.233 20.119.019-.088 8.369 6.419-.245.731a35 35 0 0 1-.601 1.658 33.9 33.9 0 0 1-4.867 8.562c-.078.1-.172.223-.274.344a33.7 33.7 0 0 1-6.516 6.208c-.364.27-.732.523-1.089.762l-.002.003-.006.001q-.33.217-.669.435a34 34 0 0 1-3.41 1.883c-.475.23-.877.413-1.163.539q-.213.095-.334.146l-.09.038-.026.011-.006.002-.273.113a35 35 0 0 1-7.025 2.023l-1.302.233.06-1.326c.056-1.268.088-2.595.081-3.975l-.003-.465a75 75 0 0 0-.096-3.124l-.047-.925.903-.207a24.6 24.6 0 0 0 6.685-2.575l.219-.127c.238-.137.473-.282.714-.432l.006-.008.054-.033q.375-.236.758-.503c.062-.043.112-.079.163-.113l.146-.105.014-.012.014-.009.15-.105q.15-.108.296-.22l.148-.114.004-.004.007-.003q.563-.426 1.092-.885l.151-.133.001-.001.001-.002a24 24 0 0 0 3.411-3.694l-5.604-4.298c-10.841 9.038-26.471 10.178-38.296 2.203l7.05-9.191z"/><use xlink:href="#c" transform="translate(-255.805 580.208)"/><use xlink:href="#c" transform="translate(255.805 580.208)"/></pattern></defs></svg>
